common/svg/run-icon.svg

<svg fill="none" height="22" viewBox="0 0 20 22" width="20" xmlns="http://www.w3.org/2000/svg"><g fill="#000"><path d="m15.7508 2.95888c0 1.12788-.9292 2.0422-2.0755 2.0422-1.1462 0-2.0755-.91432-2.0755-2.0422 0-1.12787.9293-2.042193 2.0755-2.042193 1.1463 0 2.0755.914323 2.0755 2.042193z"/><g clip-rule="evenodd" fill-rule="evenodd"><path d="m11.4442 5.83169h2.4722l4.0645 3.91422h1.1858v1.99769h-2.014l-2.7851-2.68218-.2512 3.68288 1.7848 1.7562v6.5829h-2.0302v-5.7554l-1.9708-1.9392-.8245 4.3737-6.17182-1.0121.33377-1.9705 4.20547.6897.80358-4.2629.2447-2.83593-1.33558.5354v2.51933h-2.03025v-3.86257z"/><path d="m2.90891 2.42803h5.49125v1.99769h-5.49125zm-1.38368 3.82913h3.67533v1.99769h-3.67533zm-.691886 3.78654h4.323946v1.9977h-4.323946z"/></g></g></svg>

<svg width="20" height="22" viewBox="0 0 20 22" fill="none" xmlns="http://www.w3.org/2000/svg">
<path d="M15.7508 2.95888C15.7508 4.08676 14.8216 5.00108 13.6753 5.00108C12.5291 5.00108 11.5998 4.08676 11.5998 2.95888C11.5998 1.83101 12.5291 0.916687 13.6753 0.916687C14.8216 0.916687 15.7508 1.83101 15.7508 2.95888Z" fill="black"/>
<path fill-rule="evenodd" clip-rule="evenodd" d="M11.4442 5.83169H13.9164L17.9809 9.74591H19.1667V11.7436H17.1527L14.3676 9.06142L14.1164 12.7443L15.9012 14.5005V21.0834H13.871V15.328L11.9002 13.3888L11.0757 17.7625L4.90388 16.7504L5.23765 14.7799L9.44312 15.4696L10.2467 11.2067L10.4914 8.37077L9.15582 8.90617V11.4255H7.12557V7.56293L11.4442 5.83169Z" fill="black"/>
<path fill-rule="evenodd" clip-rule="evenodd" d="M2.90891 2.42803H8.40016V4.42572H2.90891V2.42803ZM1.52523 6.25716H5.20056V8.25485H1.52523V6.25716ZM0.833344 10.0437H5.15729V12.0414H0.833344V10.0437Z" fill="black"/>
</svg>
